brandFactory_export/1.Light/Ubicacion _1Light.svg

<?xml version="1.0" encoding="UTF-8"?>
<svg width="24px" height="24px" viewBox="0 0 24 24" version="1.1" xmlns="http://www.w3.org/2000/svg" xmlns:xlink="http://www.w3.org/1999/xlink">
    <title>1.Light/Ubicacion _1Light</title>
    <g id="Symbols" stroke="none" stroke-width="1" fill="none" fill-rule="evenodd">
        <g id="1.Light/Ubicacion-_1Light" fill="#5CB615" fill-rule="nonzero">
            <path d="M12.3361345,22.410084 C14.1983193,20.312605 19.7411765,12.9546218 19.7546734,8.44369748 C19.7680672,3.64705882 17.1529412,0.998319328 12.389916,0.98487395 L12.3529412,0.98487395 C7.61008403,0.98487395 4.99159664,3.61680672 4.97812672,8.40336134 C4.96470588,12.9546218 10.4806723,20.3159664 12.3361345,22.410084 Z M12.389916,0 C17.6302521,0.0168067227 20.7495798,3.17310924 20.7328407,8.44705882 C20.7159664,13.5798319 14.3159664,21.8319328 12.6823529,23.4756303 C12.4941176,23.6672269 12.1882353,23.6705882 11.9966387,23.4823529 L11.989916,23.4756303 C10.3563025,21.8386555 3.98319328,13.5831933 3.99996682,8.39663866 C4.01680672,3.13613445 7.1394958,0 12.3529412,0 L12.389916,0 Z M12.3663866,9.92941176 C13.6739496,9.92941176 14.3663866,9.23361345 14.3663866,7.91596639 C14.3663866,6.59831933 13.6739496,5.90252101 12.3663866,5.90252101 C11.0588235,5.90252101 10.3630252,6.59831933 10.3630252,7.91596639 C10.3630252,9.23361345 11.0554622,9.92941176 12.3663866,9.92941176 Z M12.3663866,4.91764706 C14.2319328,4.91764706 15.3445378,6.04033613 15.3445378,7.91596639 C15.3445378,9.79159664 14.2319328,10.9142857 12.3663866,10.9142857 C10.5008403,10.9142857 9.38823529,9.79159664 9.38823529,7.91596639 C9.38823529,6.04033613 10.5008403,4.91764706 12.3663866,4.91764706 L12.3663866,4.91764706 Z" id="Ubicacion-_1Light"></path>
        </g>
    </g>
</svg>

<svg width="24" height="24" viewBox="0 0 24 24" xmlns="http://www.w3.org/2000/svg"><path d="M12.336 22.41c1.862-2.097 7.405-9.455 7.419-13.966.013-4.797-2.602-7.446-7.365-7.46h-.037c-4.743 0-7.361 2.633-7.375 7.42-.013 4.55 5.503 11.912 7.358 14.006zM12.39 0c5.24.017 8.36 3.173 8.343 8.447-.017 5.133-6.417 13.385-8.05 15.029a.484.484 0 01-.686.006l-.007-.006C10.356 21.839 3.983 13.583 4 8.396 4.017 3.137 7.14 0 12.353 0h.037zm-.024 9.93c1.308 0 2-.696 2-2.014 0-1.318-.692-2.013-2-2.013-1.307 0-2.003.695-2.003 2.013s.692 2.013 2.003 2.013zm0-5.012c1.866 0 2.979 1.122 2.979 2.998 0 1.876-1.113 2.998-2.979 2.998-1.865 0-2.978-1.122-2.978-2.998 0-1.876 1.113-2.998 2.978-2.998z" fill="#5CB615" fill-rule="nonzero"/></svg>
